images/11949113.svg

<?xml version="1.0" encoding="UTF-8"?>
<svg xmlns="http://www.w3.org/2000/svg" xmlns:xlink="http://www.w3.org/1999/xlink" width="300pt" height="300pt" viewBox="0 0 300 300" version="1.1">
<defs>
<g>
<symbol overflow="visible" id="glyph0-0">
<path style="stroke:none;" d="M 0.796875 2.828125 L 0.796875 -11.28125 L 8.796875 -11.28125 L 8.796875 2.828125 Z M 1.703125 1.9375 L 7.90625 1.9375 L 7.90625 -10.390625 L 1.703125 -10.390625 Z M 1.703125 1.9375 "/>
</symbol>
<symbol overflow="visible" id="glyph0-1">
<path style="stroke:none;" d="M 6.3125 -10.59375 C 5.164062 -10.59375 4.253906 -10.164062 3.578125 -9.3125 C 2.898438 -8.457031 2.5625 -7.296875 2.5625 -5.828125 C 2.5625 -4.359375 2.898438 -3.195312 3.578125 -2.34375 C 4.253906 -1.488281 5.164062 -1.0625 6.3125 -1.0625 C 7.457031 -1.0625 8.363281 -1.488281 9.03125 -2.34375 C 9.695312 -3.195312 10.03125 -4.359375 10.03125 -5.828125 C 10.03125 -7.296875 9.695312 -8.457031 9.03125 -9.3125 C 8.363281 -10.164062 7.457031 -10.59375 6.3125 -10.59375 Z M 6.3125 -11.875 C 7.945312 -11.875 9.253906 -11.328125 10.234375 -10.234375 C 11.210938 -9.140625 11.703125 -7.671875 11.703125 -5.828125 C 11.703125 -3.984375 11.210938 -2.507812 10.234375 -1.40625 C 9.253906 -0.3125 7.945312 0.234375 6.3125 0.234375 C 4.664062 0.234375 3.351562 -0.3125 2.375 -1.40625 C 1.394531 -2.507812 0.90625 -3.984375 0.90625 -5.828125 C 0.90625 -7.671875 1.394531 -9.140625 2.375 -10.234375 C 3.351562 -11.328125 4.664062 -11.875 6.3125 -11.875 Z M 6.3125 -11.875 "/>
</symbol>
<symbol overflow="visible" id="glyph0-2">
<path style="stroke:none;" d="M 1.578125 -11.671875 L 3.703125 -11.671875 L 8.875 -1.90625 L 8.875 -11.671875 L 10.40625 -11.671875 L 10.40625 0 L 8.28125 0 L 3.109375 -9.765625 L 3.109375 0 L 1.578125 0 Z M 1.578125 -11.671875 "/>
</symbol>
<symbol overflow="visible" id="glyph0-3">
<path style="stroke:none;" d="M 1.578125 -11.671875 L 3.15625 -11.671875 L 3.15625 -6.890625 L 8.890625 -6.890625 L 8.890625 -11.671875 L 10.46875 -11.671875 L 10.46875 0 L 8.890625 0 L 8.890625 -5.5625 L 3.15625 -5.5625 L 3.15625 0 L 1.578125 0 Z M 1.578125 -11.671875 "/>
</symbol>
</g>
</defs>
<g id="surface32653">
<rect x="0" y="0" width="300" height="300" style="fill:rgb(100%,100%,100%);fill-opacity:1;stroke:none;"/>
<path style="fill:none;stroke-width:1.2;stroke-linecap:butt;stroke-linejoin:miter;stroke:rgb(0%,0%,0%);stroke-opacity:1;stroke-miterlimit:10;" d="M 40.71875 87.570312 L 57.09375 97.445312 "/>
<path style="fill:none;stroke-width:1.2;stroke-linecap:butt;stroke-linejoin:miter;stroke:rgb(100%,0%,0%);stroke-opacity:1;stroke-miterlimit:10;" d="M 57.09375 97.445312 L 73.472656 107.324219 "/>
<path style="fill:none;stroke-width:1.2;stroke-linecap:butt;stroke-linejoin:miter;stroke:rgb(100%,0%,0%);stroke-opacity:1;stroke-miterlimit:10;" d="M 73.472656 107.324219 L 73.105469 126.445312 "/>
<path style="fill:none;stroke-width:1.2;stroke-linecap:butt;stroke-linejoin:miter;stroke:rgb(0%,0%,0%);stroke-opacity:1;stroke-miterlimit:10;" d="M 73.105469 126.445312 L 72.738281 145.566406 "/>
<path style=" stroke:none;fill-rule:nonzero;fill:rgb(100%,100%,100%);fill-opacity:1;" d="M 67.472656 97.824219 L 80.472656 97.824219 L 80.472656 116.824219 L 67.472656 116.824219 Z M 67.472656 97.824219 "/>
<g style="fill:rgb(100%,0%,0%);fill-opacity:1;">
  <use xlink:href="#glyph0-1" x="67.472656" y="112.675781"/>
</g>
<path style="fill:none;stroke-width:1.2;stroke-linecap:butt;stroke-linejoin:miter;stroke:rgb(0%,0%,0%);stroke-opacity:1;stroke-miterlimit:10;" d="M 70.5625 141.628906 L 53.820312 150.871094 "/>
<path style="fill:none;stroke-width:1.2;stroke-linecap:butt;stroke-linejoin:miter;stroke:rgb(100%,0%,0%);stroke-opacity:1;stroke-miterlimit:10;" d="M 53.820312 150.871094 L 37.078125 160.117188 "/>
<path style="fill:none;stroke-width:1.2;stroke-linecap:butt;stroke-linejoin:miter;stroke:rgb(0%,0%,0%);stroke-opacity:1;stroke-miterlimit:10;" d="M 74.914062 149.507812 L 58.171875 158.75 "/>
<path style="fill:none;stroke-width:1.2;stroke-linecap:butt;stroke-linejoin:miter;stroke:rgb(100%,0%,0%);stroke-opacity:1;stroke-miterlimit:10;" d="M 58.171875 158.75 L 41.429688 167.996094 "/>
<path style=" stroke:none;fill-rule:nonzero;fill:rgb(0%,0%,0%);fill-opacity:1;" d="M 105.492188 165.324219 L 76.226562 139.789062 L 69.253906 151.347656 Z M 105.492188 165.324219 "/>
<path style=" stroke:none;fill-rule:nonzero;fill:rgb(100%,100%,100%);fill-opacity:1;" d="M 26.253906 154.554688 L 39.253906 154.554688 L 39.253906 173.554688 L 26.253906 173.554688 Z M 26.253906 154.554688 "/>
<g style="fill:rgb(100%,0%,0%);fill-opacity:1;">
  <use xlink:href="#glyph0-1" x="26.253906" y="169.40625"/>
</g>
<path style="fill:none;stroke-width:1.2;stroke-linecap:butt;stroke-linejoin:miter;stroke:rgb(0%,0%,0%);stroke-opacity:1;stroke-miterlimit:10;" d="M 105.492188 165.324219 L 108.761719 203.433594 "/>
<path style="fill:none;stroke-width:1.2;stroke-linecap:butt;stroke-linejoin:miter;stroke:rgb(0%,0%,100%);stroke-opacity:1;stroke-miterlimit:10;" d="M 140.726562 150.4375 L 123.109375 157.878906 "/>
<path style="fill:none;stroke-width:1.2;stroke-linecap:butt;stroke-linejoin:miter;stroke:rgb(0%,0%,0%);stroke-opacity:1;stroke-miterlimit:10;" d="M 123.109375 157.878906 L 105.492188 165.324219 "/>
<path style=" stroke:none;fill-rule:nonzero;fill:rgb(0%,0%,0%);fill-opacity:1;" d="M 146.015625 212.101562 L 110.292969 196.859375 L 107.234375 210.007812 Z M 146.015625 212.101562 "/>
<path style="fill:none;stroke-width:1.2;stroke-linecap:butt;stroke-linejoin:miter;stroke:rgb(0%,0%,0%);stroke-opacity:1;stroke-miterlimit:10;" d="M 146.015625 212.101562 L 164.503906 245.585938 "/>
<path style="fill:none;stroke-width:1.2;stroke-linecap:butt;stroke-linejoin:miter;stroke:rgb(0%,0%,0%);stroke-opacity:1;stroke-miterlimit:10;" d="M 165.773438 179.347656 L 146.015625 212.101562 "/>
<path style="fill:none;stroke-width:1.2;stroke-linecap:butt;stroke-linejoin:miter;stroke:rgb(0%,0%,0%);stroke-opacity:1;stroke-miterlimit:10;" d="M 164.503906 245.585938 L 202.746094 246.316406 "/>
<path style="fill:none;stroke-width:1.2;stroke-linecap:butt;stroke-linejoin:miter;stroke:rgb(0%,0%,0%);stroke-opacity:1;stroke-miterlimit:10;" d="M 202.746094 246.316406 L 222.503906 213.5625 "/>
<path style="fill:none;stroke-width:1.2;stroke-linecap:butt;stroke-linejoin:miter;stroke:rgb(0%,0%,0%);stroke-opacity:1;stroke-miterlimit:10;" d="M 222.503906 213.5625 L 204.015625 180.078125 "/>
<path style="fill:none;stroke-width:1;stroke-linecap:butt;stroke-linejoin:miter;stroke:rgb(0%,0%,0%);stroke-opacity:1;stroke-miterlimit:10;" d="M 222.503906 213.5625 L 222.503906 213.5625 M 225.445312 214.140625 L 225.46875 213.097656 M 228.390625 214.71875 L 228.429688 212.632812 M 231.335938 215.296875 L 231.394531 212.167969 M 234.277344 215.875 L 234.359375 211.703125 M 237.222656 216.453125 L 237.320312 211.238281 M 240.167969 217.03125 L 240.285156 210.773438 M 243.109375 217.609375 L 243.25 210.308594 M 246.054688 218.1875 L 246.214844 209.847656 M 248.996094 218.761719 L 249.175781 209.382812 M 251.941406 219.339844 L 252.140625 208.917969 M 254.886719 219.917969 L 255.105469 208.453125 M 257.828125 220.496094 L 258.070312 207.988281 M 260.617188 221.042969 L 260.875 207.546875 "/>
<path style=" stroke:none;fill-rule:nonzero;fill:rgb(0%,0%,0%);fill-opacity:1;" d="M 165.773438 179.347656 L 203.886719 186.828125 L 204.144531 173.328125 Z M 165.773438 179.347656 "/>
<path style="fill:none;stroke-width:1.2;stroke-linecap:butt;stroke-linejoin:miter;stroke:rgb(0%,0%,0%);stroke-opacity:1;stroke-miterlimit:10;" d="M 165.773438 179.347656 L 153.25 164.890625 "/>
<path style="fill:none;stroke-width:1.2;stroke-linecap:butt;stroke-linejoin:miter;stroke:rgb(0%,0%,100%);stroke-opacity:1;stroke-miterlimit:10;" d="M 153.25 164.890625 L 140.726562 150.4375 "/>
<path style="fill:none;stroke-width:1.2;stroke-linecap:butt;stroke-linejoin:miter;stroke:rgb(0%,0%,100%);stroke-opacity:1;stroke-miterlimit:10;" d="M 140.726562 150.4375 L 145.058594 131.808594 "/>
<path style="fill:none;stroke-width:1.2;stroke-linecap:butt;stroke-linejoin:miter;stroke:rgb(0%,0%,0%);stroke-opacity:1;stroke-miterlimit:10;" d="M 145.058594 131.808594 L 149.394531 113.179688 "/>
<path style=" stroke:none;fill-rule:nonzero;fill:rgb(100%,100%,100%);fill-opacity:1;" d="M 134.726562 140.9375 L 146.726562 140.9375 L 146.726562 159.9375 L 134.726562 159.9375 Z M 134.726562 140.9375 "/>
<g style="fill:rgb(0%,0%,100%);fill-opacity:1;">
  <use xlink:href="#glyph0-2" x="134.726562" y="155.789062"/>
</g>
<path style="fill:none;stroke-width:1.2;stroke-linecap:butt;stroke-linejoin:miter;stroke:rgb(0%,0%,0%);stroke-opacity:1;stroke-miterlimit:10;" d="M 149.394531 113.179688 L 185.992188 102.058594 "/>
<path style="fill:none;stroke-width:1.2;stroke-linecap:butt;stroke-linejoin:miter;stroke:rgb(0%,0%,0%);stroke-opacity:1;stroke-miterlimit:10;" d="M 185.992188 102.058594 L 213.921875 128.191406 "/>
<path style="fill:none;stroke-width:1.2;stroke-linecap:butt;stroke-linejoin:miter;stroke:rgb(0%,0%,0%);stroke-opacity:1;stroke-miterlimit:10;" d="M 194.660156 64.804688 L 185.992188 102.058594 "/>
<path style="fill:none;stroke-width:1.2;stroke-linecap:butt;stroke-linejoin:miter;stroke:rgb(0%,0%,0%);stroke-opacity:1;stroke-miterlimit:10;" d="M 213.921875 128.191406 L 250.519531 117.070312 "/>
<path style="fill:none;stroke-width:1.2;stroke-linecap:butt;stroke-linejoin:miter;stroke:rgb(0%,0%,0%);stroke-opacity:1;stroke-miterlimit:10;" d="M 250.519531 117.070312 L 259.1875 79.816406 "/>
<path style="fill:none;stroke-width:1.2;stroke-linecap:butt;stroke-linejoin:miter;stroke:rgb(0%,0%,0%);stroke-opacity:1;stroke-miterlimit:10;" d="M 259.1875 79.816406 L 231.253906 53.683594 "/>
<path style="fill:none;stroke-width:1.2;stroke-linecap:butt;stroke-linejoin:miter;stroke:rgb(0%,0%,0%);stroke-opacity:1;stroke-miterlimit:10;" d="M 231.253906 53.683594 L 194.660156 64.804688 "/>
<path style=" stroke:none;fill-rule:nonzero;fill:rgb(100%,100%,100%);fill-opacity:1;" d="M 248.746094 204.796875 L 273.746094 204.796875 L 273.746094 223.796875 L 248.746094 223.796875 Z M 248.746094 204.796875 "/>
<g style="fill:rgb(100%,0%,0%);fill-opacity:1;">
  <use xlink:href="#glyph0-1" x="248.746094" y="219.648438"/>
  <use xlink:href="#glyph0-3" x="261.339844" y="219.648438"/>
</g>
</g>
</svg>

<svg xmlns="http://www.w3.org/2000/svg" xmlns:xlink="http://www.w3.org/1999/xlink" width="300pt" height="300pt" viewBox="0 0 300 300"><defs><symbol overflow="visible"><path d="M.797 2.828v-14.11h8V2.83zm.906-.89h6.203v-12.33H1.703zm0 0"/></symbol><symbol overflow="visible" id="a"><path d="M6.313-10.594c-1.15 0-2.06.43-2.735 1.28-.68.857-1.015 2.017-1.015 3.486 0 1.47.335 2.633 1.015 3.484.676.856 1.586 1.28 2.735 1.28 1.144.002 2.05-.424 2.718-1.28.665-.85 1-2.015 1-3.484 0-1.47-.335-2.63-1-3.484-.667-.852-1.573-1.282-2.717-1.282zm0-1.28c1.632 0 2.94.546 3.92 1.64.978 1.093 1.47 2.562 1.47 4.406 0 1.844-.492 3.32-1.47 4.422-.98 1.093-2.288 1.64-3.92 1.64-1.65 0-2.96-.546-3.938-1.64-.98-1.102-1.47-2.578-1.47-4.422 0-1.844.49-3.313 1.47-4.406.977-1.094 2.29-1.64 3.938-1.64zm0 0"/></symbol><symbol overflow="visible" id="b"><path d="M1.578-11.672h2.125l5.172 9.766v-9.766h1.53V0H8.282L3.11-9.766V0H1.577zm0 0"/></symbol><symbol overflow="visible" id="c"><path d="M1.578-11.672h1.578v4.78H8.89v-4.78h1.58V0H8.89v-5.563H3.157V0H1.578zm0 0"/></symbol></defs><g><path fill="#fff" d="M0 0h300v300H0z"/><path d="M40.72 87.57l16.374 9.875" stroke-width="1.2" stroke="#000" stroke-miterlimit="10" fill="none"/><path d="M57.094 97.445l16.38 9.88M73.473 107.324l-.368 19.12" stroke-width="1.2" stroke="#f00" stroke-miterlimit="10" fill="none"/><path d="M73.105 126.445l-.367 19.12" stroke-width="1.2" stroke="#000" stroke-miterlimit="10" fill="none"/><path d="M67.473 97.824h13v19h-13zm0 0" fill="#fff"/><use xlink:href="#a" x="67.473" y="112.676" fill="#f00"/><path d="M70.563 141.63l-16.743 9.24" stroke-width="1.2" stroke="#000" stroke-miterlimit="10" fill="none"/><path d="M53.82 150.87l-16.742 9.247" stroke-width="1.2" stroke="#f00" stroke-miterlimit="10" fill="none"/><path d="M74.914 149.508l-16.742 9.242" stroke-width="1.2" stroke="#000" stroke-miterlimit="10" fill="none"/><path d="M58.172 158.75l-16.742 9.246" stroke-width="1.2" stroke="#f00" stroke-miterlimit="10" fill="none"/><path d="M105.492 165.324L76.227 139.79l-6.973 11.558zm0 0"/><path d="M26.254 154.555h13v19h-13zm0 0" fill="#fff"/><use xlink:href="#a" x="26.254" y="169.406" fill="#f00"/><path d="M105.492 165.324l3.27 38.11" stroke-width="1.2" stroke="#000" stroke-miterlimit="10" fill="none"/><path d="M140.727 150.438l-17.618 7.44" stroke-width="1.2" stroke="#00f" stroke-miterlimit="10" fill="none"/><path d="M123.11 157.88l-17.618 7.444" stroke-width="1.2" stroke="#000" stroke-miterlimit="10" fill="none"/><path d="M146.016 212.102l-35.723-15.243-3.06 13.148zm0 0"/><path d="M146.016 212.102l18.488 33.484M165.773 179.348l-19.757 32.754M164.504 245.586l38.242.73M202.746 246.316l19.758-32.754M222.504 213.563l-18.488-33.485" stroke-width="1.2" stroke="#000" stroke-miterlimit="10" fill="none"/><path d="M222.504 213.563m2.94.578l.025-1.042m2.92 1.62l.04-2.085m2.906 2.664l.06-3.13m2.88 3.708l.083-4.172m2.863 4.75l.097-5.215m2.848 5.793l.117-6.257m2.824 6.836l.14-7.3m2.805 7.877l.16-8.34m2.78 8.915l.18-9.38m2.766 9.958l.2-10.422m2.747 11l.218-11.465m2.723 12.043l.242-12.508m2.547 13.055l.258-13.496" stroke="#000" stroke-miterlimit="10" fill="none"/><path d="M165.773 179.348l38.114 7.48.258-13.5zm0 0"/><path d="M165.773 179.348L153.25 164.89" stroke-width="1.2" stroke="#000" stroke-miterlimit="10" fill="none"/><path d="M153.25 164.89l-12.523-14.452M140.727 150.438l4.332-18.63" stroke-width="1.2" stroke="#00f" stroke-miterlimit="10" fill="none"/><path d="M145.06 131.81l4.335-18.63" stroke-width="1.2" stroke="#000" stroke-miterlimit="10" fill="none"/><path d="M134.727 140.938h12v19h-12zm0 0" fill="#fff"/><use xlink:href="#b" x="134.727" y="155.789" fill="#00f"/><path d="M149.395 113.18l36.597-11.12M185.992 102.06l27.93 26.13M194.66 64.805l-8.668 37.254M213.922 128.19l36.598-11.12M250.52 117.07l8.667-37.254M259.188 79.816l-27.934-26.132M231.254 53.684l-36.594 11.12" stroke-width="1.2" stroke="#000" stroke-miterlimit="10" fill="none"/><path d="M248.746 204.797h25v19h-25zm0 0" fill="#fff"/><g fill="#f00"><use xlink:href="#a" x="248.746" y="219.648"/><use xlink:href="#c" x="261.34" y="219.648"/></g></g></svg>
